X:1
T:I am the Duke of Norfolk or Pauls Steeple
T:I am the Duke of Norfolk or Pauls Steeple
L:1/8
M:2/4
K:Gmin
V:1 treble 
V:1
 B2 | B>AG>A | B2 B c/B/ | AF FF | F2 FF | GG GA | (Bc/B/) AG | d2 d2 | d3 c | BB Bc | d2 cB | %11
 cc cc | c2 c(B/c/) | dd cB | AG (Ac) | B2 G2 | G3 || %17

